localPackages/DesignSystem/Sources/DesignSystem/Resources/Assets.xcassets/IconSet/ic-eye-slash.imageset/ic-eye-slash.svg

<svg width="24" height="24" viewBox="0 0 24 24" fill="none" xmlns="http://www.w3.org/2000/svg">
<g id="ic-eye-slash">
<path id="Icon" fill-rule="evenodd" clip-rule="evenodd" d="M3.21967 3.21967C2.92678 3.51256 2.92678 3.98744 3.21967 4.28033L19.7197 20.7803C20.0126 21.0732 20.4874 21.0732 20.7803 20.7803C21.0732 20.4874 21.0732 20.0126 20.7803 19.7197L18.3811 17.3204C19.892 16.1976 21.2494 14.6411 22.3346 12.6508C22.5551 12.2463 22.5551 11.7538 22.3346 11.3492C18.7411 4.75835 12.1624 2.92427 6.90728 5.84661L4.28033 3.21967C3.98744 2.92678 3.51257 2.92678 3.21967 3.21967ZM8.02144 6.96078L11.5846 10.524C11.8486 10.0773 12 9.55636 12 9.00001C12 8.4605 11.8576 7.95426 11.6083 7.51682C11.7374 7.50569 11.868 7.50001 12 7.50001C14.4853 7.50001 16.5 9.51473 16.5 12C16.5 12.9719 16.1919 13.8718 15.6681 14.6074L17.3015 16.2409C18.6758 15.2608 19.9359 13.8581 20.9592 12C18.691 7.88108 15.2585 5.99998 12 6.00001C10.6725 6.00002 9.31618 6.31225 8.02144 6.96078ZM9.40971 11.9723C9.27575 11.9906 9.13898 12 9.00001 12C8.4605 12 7.95426 11.8576 7.51682 11.6083C7.50569 11.7374 7.50001 11.868 7.50001 12C7.50001 14.4853 9.51472 16.5 12 16.5C12.5753 16.5 13.1253 16.3921 13.631 16.1953L9.40971 11.9723ZM1.66544 11.3492C2.53283 9.75837 3.57416 8.44466 4.72881 7.40807L5.80728 8.4696C4.77996 9.38007 3.83842 10.5517 3.04083 12C5.30906 16.1188 8.7415 18 12 18C12.9826 18 13.9809 17.829 14.9584 17.4771L16.1295 18.6298C11.0559 20.8375 5.04248 18.8444 1.66544 12.6508C1.44485 12.2463 1.44485 11.7538 1.66544 11.3492Z" fill="#0F0F0F"/>
</g>
</svg>

<svg xmlns="http://www.w3.org/2000/svg" width="24" height="24" viewBox="0 0 24 24">
  <g class="ic-eye-slash">
    <path fill-rule="evenodd" d="M3.22 3.22a.75.75 0 0 0 0 1.06l16.5 16.5a.75.75 0 1 0 1.06-1.06l-2.399-2.4c1.511-1.122 2.868-2.679 3.954-4.67.22-.404.22-.896 0-1.3C18.74 4.757 12.162 2.923 6.907 5.846L4.28 3.22a.75.75 0 0 0-1.06 0Zm4.8 3.74 3.564 3.564C11.849 10.077 12 9.556 12 9c0-.54-.142-1.046-.392-1.483a4.5 4.5 0 0 1 4.06 7.09l1.634 1.634c1.374-.98 2.634-2.383 3.657-4.241-2.268-4.119-5.7-6-8.959-6a8.867 8.867 0 0 0-3.979.96Zm1.389 5.012a3.026 3.026 0 0 1-1.893-.364 4.5 4.5 0 0 0 6.114 4.587l-4.22-4.223Zm-7.745-.623c.868-1.59 1.91-2.904 3.064-3.94l1.078 1.06C4.78 9.38 3.838 10.553 3.041 12c2.268 4.119 5.7 6 8.959 6 .983 0 1.98-.171 2.958-.523l1.171 1.153c-5.073 2.207-11.087.214-14.464-5.98a1.363 1.363 0 0 1 0-1.3Z" class="Icon"/>
  </g>
</svg>
